!!!COM: Palestrina, Giovanni Perluigi da
!!!OPR: Te Deum laudamus
!!!OTL: Gloria
**kern	**kern	**kern	**kern	**kern	**kern
*Ibass	*Itenor	*Itenor	*Icalto	*Icalto	*Icant
!Bassus	!Tenor 2	!Tenor 1	!Altus 2	!Altus 1	!Cantus
*clefF4	*clefGv2	*clefGv2	*clefG2	*clefG2	*clefG2
*k[]	*k[]	*k[]	*k[]	*k[]	*k[]
*A:aeo	*A:aeo	*A:aeo	*A:aeo	*A:aeo	*A:aeo
*M4/2	*M4/2	*M4/2	*M4/2	*M4/2	*M4/2
=1	=1	=1	=1	=1	=1
0E	0G#	0r	0B	0r	0e
=2	=2	=2	=2	=2	=2
1E	1B	0r	1e	0r	1g#
4AA	[1c	.	[1e	.	[1a
4BB	.	.	.	.	.
4C	.	.	.	.	.
4D	.	.	.	.	.
=3	=3	=3	=3	=3	=3
2E	2c]	0r	2e]	0r	2a]
2E	2B	.	2e	.	2g
2D	2d	.	2f#	.	2a
2D	2d	.	2f#	.	2b
=4	=4	=4	=4	=4	=4
2C	2e	0r	2.g	0r	2cc
2C	2e	.	.	.	2cc
.	.	.	4g	.	.
1G	1d	.	[1g	.	1b
=5	=5	=5	=5	=5	=5
2r	1.e	1E	2g]	1B	2r
1E	.	.	2G	.	1b
.	.	1G#	1B	1e	.
2E	2e	.	.	.	2b
=6	=6	=6	=6	=6	=6
1.AA	2.c	1.A	4A	1.e	1cc
.	.	.	4B	.	.
.	.	.	4c	.	.
.	4B	.	4d	.	.
.	2A	.	2e	.	2cc
2E	2B	2G#	[2E	2e	[2b
=7	=7	=7	=7	=7	=7
1AA	2c	4A	2E]	0e	2b]
.	.	4B	.	.	.
.	2A	4c	2.e	.	1a
.	.	4A	.	.	.
1E	2r	1B	.	.	.
.	.	.	4d	.	.
.	[2E	.	2B	.	2g#
=8	=8	=8	=8	=8	=8
1AA	2E]	0A	2.c#	1e	0a
.	2.e	.	.	.	.
.	.	.	4d	.	.
2r	.	.	1e	2r	.
.	4d	.	.	.	.
2A	4c#	.	.	2e	.
.	4B	.	.	.	.
=9	=9	=9	=9	=9	=9
1A	2c#	2r	1r	1e	2r
.	2c#	2A	.	.	2a
1D	1d	2A	2r	1f#	1a
.	.	2d	2d	.	.
=10	=10	=10	=10	=10	=10
1G	0r	1B	2d	2d	1b
.	.	.	2d	2.g	.
1C	.	2.c	2e	.	2g
.	.	.	.	4g	.
.	.	.	[2c	2e	[2cc
.	.	4c	.	.	.
=11	=11	=11	=11	=11	=11
0r	0r	2A	4c]	2f	4cc]
.	.	.	4c	.	4cc
.	.	2B	2d	1g	2b
.	.	2c	2e	.	2a
.	.	[2d	2d	2f#	2a
=12	=12	=12	=12	=12	=12
1.G	1d	4d]	2B	1g	0g
.	.	4c	.	.	.
.	.	4B	1d	.	.
.	.	4A	.	.	.
.	2B	1G	.	2r	.
2G	[2B	.	2d	[2g	.
=13	=13	=13	=13	=13	=13
1G	2B]	2r	1d	2g]	0r
.	2B	1G	.	2g	.
1C	[1c	.	1e	2g	.
.	.	2G	.	2g	.
=14	=14	=14	=14	=14	=14
2F	2c]	2A	2c	1f	0r
2D	2d	2A	2f	.	.
2D	2A	2F	2f	1r	.
2C	2c	2G	2e	.	.
=15	=15	=15	=15	=15	=15
1D	2B	2G	1d	0r	0r
.	2.A	2F	.	.	.
1BB	.	2D	1d	.	.
.	4G#	.	.	.	.
.	2G#	2D	.	.	.
=16	=16	=16	=16	=16	=16
2AA	2A	1E	2c#	2r	1.a
1AA	1A	.	1c#	1e	.
.	.	2r	.	.	.
2AA	2A	[2A	2c#	2e	2a
=17	=17	=17	=17	=17	=17
1AA	1A	2A]	1c#	1e	1a
.	.	2A	.	.	.
1D	2r	1A	1d	1f#	1a
.	2A	.	.	.	.
=18	=18	=18	=18	=18	=18
2D	2D	2.A	2d	2f#	2a
2D	2d	.	2d	2f#	2a
.	.	4A	.	.	.
1GG	2B	2G	2d	[1g	1b
.	2B	2G	2d	.	.
=19	=19	=19	=19	=19	=19
1C	2.c	1E	2.e	2g]	0g
.	.	.	.	2e	.
.	4c	.	4e	.	.
1r	2c	1r	2e	2c	.
.	2B	.	2d	2d	.
=20	=20	=20	=20	=20	=20
0r	1.A	0r	4c	2e	2.cc
.	.	.	4B	.	.
.	.	.	4A	2e	.
.	.	.	4B	.	4cc
.	.	.	4c	2A	2cc
.	.	.	4d	.	.
.	2G	.	4e	2B	2b
.	.	.	8d	.	.
.	.	.	8e	.	.
=21	=21	=21	=21	=21	=21
2.F	1F	1r	1.f	4c	1.a
.	.	.	.	4B	.
.	.	.	.	4A	.
4F	.	.	.	4B	.
2F	1r	2.c	.	4c	.
.	.	.	.	4d	.
2E	.	.	2g	2e	2g
.	.	4c	.	.	.
=22	=22	=22	=22	=22	=22
2F	2r	2c	2f	1d	2a
2G	1G	2B	2d	.	2b
[1C	.	1c	2e	4c	[1g
.	.	.	.	4d	.
.	2E	.	4c	4e	.
.	.	.	4d	4f	.
=23	=23	=23	=23	=23	=23
1C]	1E	2c	4e	1e	1g]
.	.	.	4f	.	.
.	.	2B	1g	.	.
1D	2A	1A	.	[1d	1dd
.	2D	.	2f#	.	.
=24	=24	=24	=24	=24	=24
0GG	2r	[0G	0g	1d]	0b
.	1d	.	.	.	.
.	.	.	.	2r	.
.	2B	.	.	[2d	.
=25	=25	=25	=25	=25	=25
0r	1B	1G]	1r	4d]	2r
.	.	.	.	4d	.
.	.	.	.	2d	2.g
.	2.c	1r	2r	[1e	.
.	.	.	.	.	4g
.	.	.	[2c	.	2g
.	4B	.	.	.	.
=26	=26	=26	=26	=26	=26
0r	1A	0r	4c]	2e]	1a
.	.	.	4c	.	.
.	.	.	2c	2f#	.
.	2G	.	2d	4g	2b
.	.	.	.	4f	.
.	4c	.	[2e	4e	[2cc
.	4B	.	.	4d	.
=27	=27	=27	=27	=27	=27
0r	4A	0r	2e]	1c	4cc]
.	4G	.	.	.	4b
.	4F	.	1f	.	1a
.	4E	.	.	.	.
.	2D	.	.	1B	.
.	2E	.	[2e	.	2g
=28	=28	=28	=28	=28	=28
1r	1F	1r	2e]	1A	1a
.	.	.	2d	.	.
[1C	[1E	2r	1e	1c	[1g
.	.	[2G	.	.	.
=29	=29	=29	=29	=29	=29
2C]	1E]	2G]	2r	2r	1g]
2C	.	2G	1e	1c	.
1AA	1r	1A	.	.	1r
.	.	.	2f#	2c	.
=30	=30	=30	=30	=30	=30
2GG	0r	2B	2g	2d	0r
2C	.	2.c	2G	2e	.
4FF	.	.	4A	1f	.
4GG	.	4B	4B	.	.
4AA	.	2A	4c	.	.
4BB	.	.	4d	.	.
=31	=31	=31	=31	=31	=31
4C	0r	2.G	4e	1e	0r
4D	.	.	4f	.	.
4E	.	.	2g	.	.
4F	.	4A	.	.	.
2G	.	2B	2g	2d	.
2A	.	2c	2f#	[2c	.
=32	=32	=32	=32	=32	=32
1G	1r	1d	1g	2c]	1r
.	.	.	.	4B	.
.	.	.	.	4A	.
[1GG	[1G	2r	2r	2B	2r
.	.	[2B	[2g	[2d	[2b
=33	=33	=33	=33	=33	=33
2GG]	2G]	2B]	2g]	2d]	2b]
2GG	2G	2B	2g	2d	2b
1GG	1G	1B	1g	[1d	1b
=34	=34	=34	=34	=34	=34
1D	1A	2d	1f#	1d]	1a
.	.	1D	.	.	.
[1GG	4G	.	[1g	1d	2b
.	4A	.	.	.	.
.	4B	[2G	.	.	4g
.	4c	.	.	.	4a
=35	=35	=35	=35	=35	=35
1GG]	1d	4G]	2g]	1B	4b
.	.	4A	.	.	4cc
.	.	4B	4d	.	2dd
.	.	4c	4e	.	.
1r	1r	2d	4f	2r	2a
.	.	.	4g	.	.
.	.	2A	2a	4c	[2cc
.	.	.	.	4d	.
=36	=36	=36	=36	=36	=36
0r	0r	2c	1g	4e	2cc]
.	.	.	.	4f	.
.	.	2G	.	2g	2b
.	.	4A	2c	2e	[1a
.	.	4G	.	.	.
.	.	4F	2c	[2f	.
.	.	4E	.	.	.
=37	=37	=37	=37	=37	=37
0r	1r	1D	4d	4f]	0a]
.	.	.	4e	4e	.
.	.	.	4f	1d	.
.	.	.	4d	.	.
.	[1A	1r	1e	.	.
.	.	.	.	2c#	.
=38	=38	=38	=38	=38	=38
0D	1A]	0A	2f#	1d	0a
.	.	.	4d	.	.
.	.	.	4e	.	.
.	[1D	.	4f#	1d	.
.	.	.	4g	.	.
.	.	.	4a	.	.
.	.	.	4f#	.	.
=39	=39	=39	=39	=39	=39
0GG	1D]	0G	2.g	2.d	2b
.	.	.	.	.	4g
.	.	.	8f	4c	4a
.	.	.	8e	.	.
.	1G	.	1d	2B	4b
.	.	.	.	.	4cc
.	.	.	.	[2g	4dd
.	.	.	.	.	4b
=40	=40	=40	=40	=40	=40
1C	[0E	1G	[0e	4g]	4cc
.	.	.	.	4f	4dd
.	.	.	.	2.e	4ee
.	.	.	.	.	4dd
1AA	.	1A	.	.	4cc
.	.	.	.	4d	4b
.	.	.	.	2c	[2a
=41	=41	=41	=41	=41	=41
0E	0E]	0B	0e]	2B	2a]
.	.	.	.	2.e	4g#
.	.	.	.	.	4f#
.	.	.	.	.	1g#
.	.	.	.	4d	.
.	.	.	.	2B	.
=42	=42	=42	=42	=42	=42
0AA	1r	1A	1e	2.c	1a
.	.	.	.	4d	.
.	1A	2r	2r	1e	1cc
.	.	2A	2c	.	.
=43	=43	=43	=43	=43	=43
0r	2G	2B	2d	0r	2b
.	2E	1c	2e	.	2g
.	1F	.	1A	.	1a
.	.	2d	.	.	.
=44	=44	=44	=44	=44	=44
1C	1E	2e	1c	2r	1g
.	.	2c	.	2e	.
2D	1r	2B	1r	2d	1r
2E	.	2G	.	2B	.
=45	=45	=45	=45	=45	=45
1AA	0r	1A	0e	1c	1r
1E	.	2G	.	1B	2r
.	.	2E	.	.	2g
=46	=46	=46	=46	=46	=46
0r	1r	2F	2d	1r	2a
.	.	2G	2B	.	2b
.	2r	1A	1c	2r	2e
.	2c	.	.	2c	[2a
=47	=47	=47	=47	=47	=47
0r	2B	0r	2r	2d	4a]
.	.	.	.	.	4g
.	2G	.	2B	2.e	1g
.	1A	.	1c	.	.
.	.	.	.	4d	.
.	.	.	.	[2c	2f#
=48	=48	=48	=48	=48	=48
1r	1G	1r	1d	2c]	1g
.	.	.	.	2B	.
1C	1r	2r	2e	1c	1g
.	.	2c	2e	.	.
=49	=49	=49	=49	=49	=49
2D	1r	2B	2d	0r	0r
2E	.	2G	2B	.	.
1AA	[1e	1A	1c	.	.
=50	=50	=50	=50	=50	=50
1E	1e]	2G	1B	1r	2r
.	.	2E	.	.	2g
1r	2d	2F	1r	2r	2a
.	2B	2G	.	2d	2b
=51	=51	=51	=51	=51	=51
0r	1c	1A	1r	2c	2.e
.	.	.	.	2A	.
.	.	.	.	.	4f#
.	2B	1E	1e	1B	4g
.	.	.	.	.	4a
.	2E	.	.	.	4b
.	.	.	.	.	4g
=52	=52	=52	=52	=52	=52
2r	2F	1r	2d	2A	2a
2E	2G	.	2B	1e	2b
2AA	1A	2r	2.c	.	2a
2AA	.	2A	.	2e	[2cc
.	.	.	4d	.	.
=53	=53	=53	=53	=53	=53
2.C	[0E	2G	0e	2c	4cc]
.	.	.	.	.	4b
.	.	2c	.	2.e	1a
4D	.	.	.	.	.
1E	.	1B	.	.	.
.	.	.	.	4d	.
.	.	.	.	2B	2g#
=54	=54	=54	=54	=54	=54
0AA	0E]	0A	0e	0c#	0a
=55	=55	=55	=55	=55	=55
0r	0r	0r	1d	1r	0a
.	.	.	1f	1d	.
=56	=56	=56	=56	=56	=56
0r	0r	0r	2d	1f	1a
.	.	.	2d	.	.
.	.	.	2.f	2d	2a
.	.	.	.	2d	2a
.	.	.	4e	.	.
=57	=57	=57	=57	=57	=57
0r	0r	0r	4d	1f	1.a
.	.	.	4c	.	.
.	.	.	2d	.	.
.	.	.	2.c	2.e	.
.	.	.	.	.	2g
.	.	.	4B	4d	.
=58	=58	=58	=58	=58	=58
0r	0r	0r	2c	2e	2a
.	.	.	2.d	2.f	2.b
.	.	.	4c	4e	4a
.	.	.	2A	2c	[2a
=59	=59	=59	=59	=59	=59
1r	0r	2r	1B	1d	2a]
.	.	1d	.	.	2g#
2r	.	.	1A	[1e	1a
[2A	.	2c	.	.	.
=60	=60	=60	=60	=60	=60
2A]	2r	2c	0r	1e]	1r
2G#	1e	2B	.	.	.
2.A	.	2c	.	1r	2r
.	2c	[2A	.	.	[2a
4G	.	.	.	.	.
=61	=61	=61	=61	=61	=61
2F	2d	2A]	0r	0r	2a]
2E	2e	1c	.	.	2g
2F	1d	.	.	.	2a
2G	.	2B	.	.	2b
=62	=62	=62	=62	=62	=62
4C	1e	2c	2r	2r	[0g
4D	.	.	.	.	.
4E	.	4C	1e	1c	.
4F	.	4D	.	.	.
1G	1r	4E	.	.	.
.	.	4F	.	.	.
.	.	2G	2d	2B	.
=63	=63	=63	=63	=63	=63
0r	0r	4E	2e	2c	1g]
.	.	4F	.	.	.
.	.	4G	2d	2.B	.
.	.	8F	.	.	.
.	.	8G	.	.	.
.	.	1A	1c	.	[1e
.	.	.	.	4A	.
.	.	.	.	[2A	.
=64	=64	=64	=64	=64	=64
1r	0r	1E	2B	2A]	1e]
.	.	.	2e	2G#	.
1D	.	1r	1f	1A	1r
=65	=65	=65	=65	=65	=65
1F	1A	1D	2d	0r	0r
.	.	.	1d	.	.
2D	1A	1F	.	.	.
2D	.	.	[2f	.	.
=66	=66	=66	=66	=66	=66
2.F	2A	2D	4f]	0r	0r
.	.	.	4e	.	.
.	2A	2D	4d	.	.
4E	.	.	4c	.	.
4D	[1A	1F	2d	.	.
4C	.	.	.	.	.
2D	.	.	4A	.	.
.	.	.	4B	.	.
=67	=67	=67	=67	=67	=67
2.C	2A]	2.E	4c	0r	0r
.	.	.	4d	.	.
.	2G#	.	1e	.	.
4BB	.	4D	.	.	.
2C	2A	2E	.	.	.
[2D	[2B	[2F	[2d	.	.
=68	=68	=68	=68	=68	=68
4D]	4B]	4F]	4d]	1r	0r
4C	4A	4E	4e	.	.
2AA	1A	2E	2c	.	.
1BB	.	1D	1d	2r	.
.	2G#	.	.	[2d	.
=69	=69	=69	=69	=69	=69
0AA	0A	1E	1r	2d]	1r
.	.	.	.	2c	.
.	.	2r	[1e	[1c	[1a
.	.	[2A	.	.	.
=70	=70	=70	=70	=70	=70
0r	0r	2A]	2e]	2c]	2a]
.	.	2E	2e	4B	2g#
.	.	.	.	4A	.
.	.	1E	1e	1B	1a
=71	=71	=71	=71	=71	=71
1.D	1.d	1.A	1.f	0r	1r
.	.	.	.	.	2r
2AA	2c#	2A	2e	.	[2a
=72	=72	=72	=72	=72	=72
0AA	2c#	2.A	1e	1r	2a]
.	1A	.	.	.	2a
.	.	4B	.	.	.
.	.	4c	1r	2r	2a
.	.	4B	.	.	.
.	2A	4c	.	[2e	2a
.	.	4d	.	.	.
=73	=73	=73	=73	=73	=73
1r	2A	1e	2r	2e]	1cc
.	2A	.	1e	2e	.
2r	1c	1r	.	2e	1g
[2E	.	.	2e	2e	.
=74	=74	=74	=74	=74	=74
2E]	1G	2r	2e	1g	[0b
2E	.	1B	2e	.	.
2E	2.G	.	[1g	1e	.
2E	.	2B	.	.	.
.	4A	.	.	.	.
=75	=75	=75	=75	=75	=75
1G	4B	2B	1g]	2.d	1b]
.	4c	.	.	.	.
.	2.d	2B	.	.	.
.	.	.	.	4e	.
1D	.	[1d	1f	4f	2a
.	4c	.	.	4e	.
.	4B	.	.	4d	[2b
.	4A	.	.	4c	.
=76	=76	=76	=76	=76	=76
0E	2G#	2d]	0e	2B	2b]
.	2A	2c	.	2.e	1a
.	2B	1B	.	.	.
.	.	.	.	4d	.
.	2E	.	.	2B	2g#
=77	=77	=77	=77	=77	=77
2AA	2r	2A	1e	2c#	1a
2AA	2A	2c	.	2e	.
1D	[1A	1d	1r	1f	2r
.	.	.	.	.	2a
=78	=78	=78	=78	=78	=78
1AA	1A]	4c	0r	2e	1cc
.	.	4A	.	.	.
.	.	4c	.	2a	.
.	.	4d	.	.	.
1r	2.E	2e	.	[1g	2b
.	.	2c	.	.	2ee
.	4F	.	.	.	.
=79	=79	=79	=79	=79	=79
0r	1G	2.B	0r	2g]	2.dd
.	.	.	.	2g	.
.	.	4A	.	.	4cc
.	1r	2G	.	4g	2b
.	.	.	.	4f	.
.	.	[2A	.	4e	[2cc
.	.	.	.	4d	.
=80	=80	=80	=80	=80	=80
0r	0r	4A]	1r	4c	4cc]
.	.	4G	.	4d	4b
.	.	2E	.	1e	2g
.	.	1F	2r	.	1a
.	.	.	2A	2d	.
=81	=81	=81	=81	=81	=81
1r	1r	2.C	1c	0e	0g
.	.	4D	.	.	.
2r	2r	1E	2B	.	.
2E	2G	.	2e	.	.
=82	=82	=82	=82	=82	=82
1F	1A	0r	2d	2r	0r
.	.	.	2c	2a	.
2E	2B	.	[1e	2g	.
2A	2c	.	.	2e	.
=83	=83	=83	=83	=83	=83
2.G	2.B	0r	2e]	1.g	0r
.	.	.	2d	.	.
4F	4A	.	.	.	.
2E	2G	.	4c	.	.
.	.	.	4B	.	.
[2F	[2A	.	[2d	[2f	.
=84	=84	=84	=84	=84	=84
4F]	4A]	0r	4d]	4f]	0r
4E	4G	.	4c	4g	.
2C	2G	.	1c	2e	.
1D	1F	.	.	1f	.
.	.	.	2B	.	.
=85	=85	=85	=85	=85	=85
2C	2G	2r	2c	2e	2r
1C	4C	1E	1g	1e	1cc
.	4D	.	.	.	.
.	4E	.	.	.	.
.	4F	.	.	.	.
2C	4G	2E	2g	2e	2cc
.	4A	.	.	.	.
=86	=86	=86	=86	=86	=86
1GG	2B	1G	1g	1d	1b
.	2B	.	.	.	.
1D	2d	2A	1f	1d	1a
.	2D	[2d	.	.	.
=87	=87	=87	=87	=87	=87
0AA	0A	2d]	0e	1r	0a
.	.	4c#	.	.	.
.	.	4B	.	.	.
.	.	1c#	.	1e	.
=88	=88	=88	=88	=88	=88
1D	0A	2d	1d	2f	2a
.	.	1d	.	1f	1a
1r	.	.	1r	.	.
.	.	2c#	.	2e	2a
=89	=89	=89	=89	=89	=89
0r	0r	2d	0r	2f	1a
.	.	2c	.	2e	.
.	.	2B	.	2d	1g
.	.	[2c	.	[2e	.
=90	=90	=90	=90	=90	=90
0r	0r	4c]	2r	4e]	2a
.	.	4d	.	4f	.
.	.	2B	2d	2g	2b
.	.	1A	2e	2.c	[1cc
.	.	.	2f	.	.
.	.	.	.	8B	.
.	.	.	.	8c	.
=91	=91	=91	=91	=91	=91
2r	2r	1G	1g	2d	2cc]
2E	2G	.	.	2e	2b
2F	2A	1r	2f	1r	2a
2G	2B	.	[2e	.	[2g
=92	=92	=92	=92	=92	=92
1A	1c	1r	2e]	1r	2g]
.	.	.	4d	.	2f#
.	.	.	4c	.	.
1G	1B	2r	1d	2r	1g
.	.	[2G	.	2d	.
=93	=93	=93	=93	=93	=93
1C	1c	2G]	0r	2e	0r
.	.	2.A	.	2e	.
2D	2A	.	.	2f	.
.	.	4B	.	.	.
2E	2G	[2c	.	4e	.
.	.	.	.	4d	.
=94	=94	=94	=94	=94	=94
2F	2A	4c]	1r	2c	0r
.	.	4B	.	.	.
2F	2A	1A	.	2d	.
1E	2B	.	2r	1e	.
.	2B	2G#	2e	.	.
=95	=95	=95	=95	=95	=95
1D	1d	1A	1f	2r	2r
.	.	.	.	1A	2a
1A	2c	2r	2e	.	1cc
.	2A	2A	2a	[2e	.
=96	=96	=96	=96	=96	=96
1.E	2B	1e	2.g	2e]	1.b
.	2G	.	.	1g	.
.	.	.	4f	.	.
.	1G	2B	2e	.	.
2C	.	2c	[2g	2G	2ee
=97	=97	=97	=97	=97	=97
2D	2r	2A	2g]	2d	2.dd
2D	2A	2A	2f#	2d	.
.	.	.	.	.	4cc
1G	1B	2G	[1g	2d	2b
.	.	2B	.	2G	[2dd
=98	=98	=98	=98	=98	=98
2C	1c	1e	0g]	2G	2dd]
2C	.	.	.	2.g	1cc
1G	2d	1d	.	.	.
.	.	.	.	4f	.
.	[2G	.	.	2d	2b
=99	=99	=99	=99	=99	=99
1C	2G]	1c	1g	1e	2cc
.	2E	.	.	.	2g
1r	2F	1r	1r	1d	2a
.	2G	.	.	.	2b
=100	=100	=100	=100	=100	=100
0r	2.A	0r	1e	2r	2.cc
.	.	.	.	2c	.
.	4G	.	.	.	4b
.	2F	.	2f	2d	2a
.	2E	.	2g	2e	2g
=101	=101	=101	=101	=101	=101
1r	1D	0r	2.a	2.f	4f
.	.	.	.	.	4e
.	.	.	.	.	4d
.	.	.	4g	4e	4e
2r	1r	.	2f	2d	4f
.	.	.	.	.	4g
2C	.	.	2e	2c	[2a
=102	=102	=102	=102	=102	=102
2D	1r	1r	2f	1B	2a]
2E	.	.	2e	.	2g#
2.F	2r	2r	2d	1A	1a
.	2F	2A	2c	.	.
4E	.	.	.	.	.
=103	=103	=103	=103	=103	=103
2D	2F	2B	2B	0r	0r
2C	2E	2c	1A	.	.
1BB	2D	2d	.	.	.
.	2D	2d	2G#	.	.
=104	=104	=104	=104	=104	=104
1AA	2E	1c#	1A	2r	2r
.	2A	.	.	2c#	2e
1r	2d	1r	2r	2d	2f
.	2c	.	2c	2e	2g
=105	=105	=105	=105	=105	=105
0r	1F	0r	2c	2f	2a
.	.	.	2f	1a	1cc
.	2A	.	1e	.	.
.	2E	.	.	2g	2b
=106	=106	=106	=106	=106	=106
0r	4F	0r	1c	2f	1a
.	4G	.	.	.	.
.	4A	.	.	4e	.
.	4B	.	.	4d	.
.	2c	.	2c	2e	2g
.	2F	.	[2c	2f	[2a
=107	=107	=107	=107	=107	=107
0r	1G	0r	2c]	0d	4a]
.	.	.	.	.	4g
.	.	.	2B	.	1g
.	1D	.	1A	.	.
.	.	.	.	.	2f#
=108	=108	=108	=108	=108	=108
2r	1G	2r	1G	1B	2g
2E	.	2e	.	.	2g
2F	1r	2d	2r	1r	2a
2G	.	2d	2g	.	2b
=109	=109	=109	=109	=109	=109
2A	0r	1c	2f	0r	2cc
1c	.	.	2e	.	1ee
.	.	2A	2c	.	.
2B	.	2B	2d	.	2dd
=110	=110	=110	=110	=110	=110
1A	1r	1c	2e	1r	1cc
.	.	.	2f#	.	.
2G	2r	2d	1g	2r	1b
2E	2B	2G	.	2e	.
=111	=111	=111	=111	=111	=111
2A	2c	2A	0r	2e	1r
2G	2d	2B	.	2g	.
1C	2e	2c	.	1g	2r
.	[2c	[2e	.	.	2g
=112	=112	=112	=112	=112	=112
0r	2c]	2e]	0r	2c	2a
.	2B	2d	.	2d	2b
.	1A	[1c	.	1e	2cc
.	.	.	.	.	[2ee
=113	=113	=113	=113	=113	=113
1r	1G	2c]	2r	1g	2ee]
.	.	2B	1g	.	2dd
[1C	2r	1c	.	2r	1cc
.	[2e	.	2g	[2G	.
=114	=114	=114	=114	=114	=114
2C]	2e]	1G	1g	2G]	2cc
2GG	2d	.	.	2B	2.b
2AA	2c	1r	[1e	2c	.
.	.	.	.	.	4a
2AA	2c	.	.	2A	[2a
=115	=115	=115	=115	=115	=115
0E	0B	1r	1e]	2B	2a]
.	.	.	.	1E	4g#
.	.	.	.	.	4f#
.	.	2.e	1B	.	1g#
.	.	.	.	[2e	.
.	.	4d	.	.	.
=116	=116	=116	=116	=116	=116
0AA	1A	4c	2.c	4e]	0a
.	.	4B	.	4d	.
.	.	2.A	.	4c	.
.	.	.	4d	4B	.
.	1E	.	1e	1c	.
.	.	4E	.	.	.
.	.	[2A	.	.	.
=117	=117	=117	=117	=117	=117
[0E	[0E	2A]	[0e	[0B	[0b
.	.	4G#	.	.	.
.	.	4F#	.	.	.
.	.	1G#	.	.	.
=118	=118	=118	=118	=118	=118
0E]	0E]	0G#	0e]	0B]	0b]
==	==	==	==	==	==
*-	*-	*-	*-	*-	*-
!!!CDT: 1525/^1526/-1594/2/2
!!!OCY: Italia
!!!AGN: Mass (Paraphrase)
!!!AST: renaissance, vocal
!!!ASW: Hymn
!!!PWK: Masses, Book 9
!!!RNB: Cadence finals: G,E,D
!!!YOR: Le Opere Complete, v. 25, p. 172
!!!YOO: Rome, Italy: Fratelli Scalera
!!!END: 1992//
!!!EED: John Miller
!!!YEC: Copyright 2000, John Miller
!!!YEN: United States of America
!!!YEM: Rights to all derivative electronic formats reserved.
!!!YEM: Refer to licensing agreement for further details.
!!!YEM: This file must be accompanied by the licensing agreement.
!!!YEM: A copy of the licensing agreement may be found at http://www.music-cog.ohio-state.edu/HumdrumDatabases/Palestrina/license.txt
!!!EMD: converted to Humdrum by Bret Aarden
